app/assets/img/work/ttl-clipla-pc.svg

<svg fill="none" height="25" viewBox="0 0 111 25" width="111" xmlns="http://www.w3.org/2000/svg"><path d="m17.584 17.968c.128 0 .256.0267.384.08.128.0427.2507.1227.368.24l2.144 2.256c-.9387 1.2267-2.1173 2.1547-3.536 2.784-1.408.6187-3.0773.928-5.008.928-1.7707 0-3.36-.2987-4.768-.896-1.39733-.608-2.58667-1.44-3.568-2.496-.97067-1.0667-1.71733-2.3253-2.24-3.776-.522667-1.4613-.784-3.0453-.784-4.752 0-1.7387.298667-3.33333.896-4.784.59733-1.46133 1.42933-2.72 2.496-3.776 1.07733-1.056 2.36267-1.87733 3.856-2.464 1.49333-.586668 3.1413-.880001 4.944-.880001.8747 0 1.696.08 2.464.24.7787.149333 1.504.362661 2.176.640001.672.26667 1.2907.592 1.856.976.5653.37333 1.0667.78933 1.504 1.248l-1.824 2.448c-.1173.14933-.256.288-.416.416-.16.11733-.384.176-.672.176-.192 0-.3733-.04267-.544-.128s-.352-.18667-.544-.304c-.192-.128-.4053-.26133-.64-.4-.224-.14933-.496-.28267-.816-.4-.3093-.128-.6773-.23467-1.104-.32-.416-.08533-.9067-.128-1.472-.128-.9813 0-1.8773.176-2.688.528-.81067.34133-1.50933.83733-2.096 1.488-.576.64-1.02933 1.41867-1.36 2.336-.32.9173-.48 1.9467-.48 3.088 0 1.1947.16 2.256.48 3.184.33067.928.77333 1.712 1.328 2.352.56533.6293 1.22133 1.1093 1.968 1.44.7467.3307 1.5467.496 2.4.496.4907 0 .9387-.0213 1.344-.064.4053-.0533.7787-.1387 1.12-.256.352-.1173.6827-.2667.992-.448.32-.192.64-.4267.96-.704.128-.1067.2667-.192.416-.256.1493-.0747.304-.112.464-.112zm11.0953 1.712h8.64v4.32h-14.0481v-23.312h5.4081zm17.4257 4.32h-5.44v-23.312h5.44zm10.058-7.792v7.792h-5.408v-23.312h8.224c1.6427 0 3.0507.197333 4.224.592 1.184.384 2.1547.91733 2.912 1.6.768.68267 1.3333 1.488 1.696 2.416s.544 1.93067.544 3.008c0 1.16267-.1867 2.2293-.56 3.2s-.944 1.8027-1.712 2.496-1.744 1.2373-2.928 1.632c-1.1733.384-2.5653.576-4.176.576zm0-4.08h2.816c1.408 0 2.4213-.336 3.04-1.008s.928-1.61067.928-2.816c0-.53333-.08-1.01867-.24-1.456s-.4053-.81067-.736-1.12c-.32-.32-.7307-.56533-1.232-.736-.4907-.17067-1.0773-.256-1.76-.256h-2.816zm20.7262 7.552h8.64v4.32h-14.048v-23.312h5.408zm33.2018 4.32h-4.192c-.469 0-.859-.1067-1.168-.32-.299-.224-.507-.5067-.624-.848l-1.376-4.064h-8.864l-1.376 4.064c-.1067.2987-.3147.5707-.624.816-.3093.2347-.688.352-1.136.352h-4.224l9.024-23.312h5.536zm-14.976-8.912h6.368l-2.144-6.384c-.1387-.40533-.304-.88-.496-1.424-.1813-.55467-.3627-1.152-.544-1.792-.1707.65067-.3467 1.25333-.528 1.808s-.352 1.03467-.512 1.44z" fill="#121111"/></svg>

<svg width="111" height="25" viewBox="0 0 111 25" fill="none" xmlns="http://www.w3.org/2000/svg">
<path d="M17.584 17.968C17.712 17.968 17.84 17.9947 17.968 18.048C18.096 18.0907 18.2187 18.1707 18.336 18.288L20.48 20.544C19.5413 21.7707 18.3627 22.6987 16.944 23.328C15.536 23.9467 13.8667 24.256 11.936 24.256C10.1653 24.256 8.576 23.9573 7.168 23.36C5.77067 22.752 4.58133 21.92 3.6 20.864C2.62933 19.7973 1.88267 18.5387 1.36 17.088C0.837333 15.6267 0.576 14.0427 0.576 12.336C0.576 10.5973 0.874667 9.00267 1.472 7.552C2.06933 6.09067 2.90133 4.832 3.968 3.776C5.04533 2.72 6.33067 1.89867 7.824 1.312C9.31733 0.725332 10.9653 0.431999 12.768 0.431999C13.6427 0.431999 14.464 0.511999 15.232 0.671999C16.0107 0.821332 16.736 1.03466 17.408 1.312C18.08 1.57867 18.6987 1.904 19.264 2.288C19.8293 2.66133 20.3307 3.07733 20.768 3.536L18.944 5.984C18.8267 6.13333 18.688 6.272 18.528 6.4C18.368 6.51733 18.144 6.576 17.856 6.576C17.664 6.576 17.4827 6.53333 17.312 6.448C17.1413 6.36267 16.96 6.26133 16.768 6.144C16.576 6.016 16.3627 5.88267 16.128 5.744C15.904 5.59467 15.632 5.46133 15.312 5.344C15.0027 5.216 14.6347 5.10933 14.208 5.024C13.792 4.93867 13.3013 4.896 12.736 4.896C11.7547 4.896 10.8587 5.072 10.048 5.424C9.23733 5.76533 8.53867 6.26133 7.952 6.912C7.376 7.552 6.92267 8.33067 6.592 9.248C6.272 10.1653 6.112 11.1947 6.112 12.336C6.112 13.5307 6.272 14.592 6.592 15.52C6.92267 16.448 7.36533 17.232 7.92 17.872C8.48533 18.5013 9.14133 18.9813 9.888 19.312C10.6347 19.6427 11.4347 19.808 12.288 19.808C12.7787 19.808 13.2267 19.7867 13.632 19.744C14.0373 19.6907 14.4107 19.6053 14.752 19.488C15.104 19.3707 15.4347 19.2213 15.744 19.04C16.064 18.848 16.384 18.6133 16.704 18.336C16.832 18.2293 16.9707 18.144 17.12 18.08C17.2693 18.0053 17.424 17.968 17.584 17.968ZM28.6793 19.68H37.3193V24H23.2712V0.688H28.6793V19.68ZM46.105 24H40.665V0.688H46.105V24ZM56.163 16.208V24H50.755V0.688H58.979C60.6217 0.688 62.0297 0.885333 63.203 1.28C64.387 1.664 65.3577 2.19733 66.115 2.88C66.883 3.56267 67.4483 4.368 67.811 5.296C68.1737 6.224 68.355 7.22667 68.355 8.304C68.355 9.46667 68.1683 10.5333 67.795 11.504C67.4217 12.4747 66.851 13.3067 66.083 14C65.315 14.6933 64.339 15.2373 63.155 15.632C61.9817 16.016 60.5897 16.208 58.979 16.208H56.163ZM56.163 12.128H58.979C60.387 12.128 61.4003 11.792 62.019 11.12C62.6377 10.448 62.947 9.50933 62.947 8.304C62.947 7.77067 62.867 7.28533 62.707 6.848C62.547 6.41067 62.3017 6.03733 61.971 5.728C61.651 5.408 61.2403 5.16267 60.739 4.992C60.2483 4.82133 59.6617 4.736 58.979 4.736H56.163V12.128ZM76.8892 19.68H85.5292V24H71.4812V0.688H76.8892V19.68ZM110.091 24H105.899C105.43 24 105.04 23.8933 104.731 23.68C104.432 23.456 104.224 23.1733 104.107 22.832L102.731 18.768H93.867L92.491 22.832C92.3843 23.1307 92.1763 23.4027 91.867 23.648C91.5577 23.8827 91.179 24 90.731 24H86.507L95.531 0.688H101.067L110.091 24ZM95.115 15.088H101.483L99.339 8.704C99.2003 8.29867 99.035 7.824 98.843 7.28C98.6617 6.72533 98.4803 6.128 98.299 5.488C98.1283 6.13867 97.9523 6.74133 97.771 7.296C97.5897 7.85067 97.419 8.33067 97.259 8.736L95.115 15.088Z" fill="#121111"/>
</svg>
